src/assets/icons/hamburger.svg

<svg width="24" height="22" viewBox="0 0 24 22" fill="none" xmlns="http://www.w3.org/2000/svg">
<path d="M22.5402 18.8571H0.834821C0.613413 18.8571 0.401073 18.9399 0.244514 19.0873C0.0879541 19.2346 0 19.4345 0 19.6429L0 21.2143C0 21.4227 0.0879541 21.6225 0.244514 21.7699C0.401073 21.9172 0.613413 22 0.834821 22H22.5402C22.7616 22 22.9739 21.9172 23.1305 21.7699C23.287 21.6225 23.375 21.4227 23.375 21.2143V19.6429C23.375 19.4345 23.287 19.2346 23.1305 19.0873C22.9739 18.9399 22.7616 18.8571 22.5402 18.8571ZM22.5402 12.5714L0.834821 12.5714C0.613413 12.5714 0.401073 12.6542 0.244514 12.8016C0.0879541 12.9489 0 13.1488 0 13.3571L0 14.9286C0 15.137 0.0879541 15.3368 0.244514 15.4842C0.401073 15.6315 0.613413 15.7143 0.834821 15.7143L22.5402 15.7143C22.7616 15.7143 22.9739 15.6315 23.1305 15.4842C23.287 15.3368 23.375 15.137 23.375 14.9286V13.3571C23.375 13.1488 23.287 12.9489 23.1305 12.8016C22.9739 12.6542 22.7616 12.5714 22.5402 12.5714ZM22.5402 6.28571L0.834821 6.28571C0.613413 6.28571 0.401073 6.36849 0.244514 6.51584C0.0879541 6.66319 0 6.86304 0 7.07143L0 8.64286C0 8.85124 0.0879541 9.05109 0.244514 9.19844C0.401073 9.34579 0.613413 9.42857 0.834821 9.42857L22.5402 9.42857C22.7616 9.42857 22.9739 9.34579 23.1305 9.19844C23.287 9.05109 23.375 8.85124 23.375 8.64286V7.07143C23.375 6.86304 23.287 6.66319 23.1305 6.51584C22.9739 6.36849 22.7616 6.28571 22.5402 6.28571ZM22.5402 0L0.834821 0C0.613413 0 0.401073 0.0827803 0.244514 0.23013C0.0879541 0.37748 0 0.57733 0 0.785714L0 2.35714C0 2.56553 0.0879541 2.76538 0.244514 2.91273C0.401073 3.06008 0.613413 3.14286 0.834821 3.14286L22.5402 3.14286C22.7616 3.14286 22.9739 3.06008 23.1305 2.91273C23.287 2.76538 23.375 2.56553 23.375 2.35714V0.785714C23.375 0.57733 23.287 0.37748 23.1305 0.23013C22.9739 0.0827803 22.7616 0 22.5402 0Z" fill="#311F6D"/>
</svg>

<svg width="24" height="22" fill="none" xmlns="http://www.w3.org/2000/svg"><path d="M22.54 18.857H.835a.862.862 0 0 0-.59.23.763.763 0 0 0-.245.556v1.571c0 .209.088.409.245.556a.86.86 0 0 0 .59.23H22.54a.862.862 0 0 0 .59-.23.763.763 0 0 0 .245-.556v-1.571a.763.763 0 0 0-.244-.556.862.862 0 0 0-.59-.23Zm0-6.286H.835a.862.862 0 0 0-.59.23.763.763 0 0 0-.245.556v1.572a.76.76 0 0 0 .245.555c.156.148.368.23.59.23H22.54a.862.862 0 0 0 .59-.23.763.763 0 0 0 .245-.555v-1.572a.763.763 0 0 0-.244-.555.862.862 0 0 0-.59-.23Zm0-6.285H.835a.862.862 0 0 0-.59.23A.763.763 0 0 0 0 7.07v1.572a.76.76 0 0 0 .245.555c.156.148.368.23.59.23H22.54a.862.862 0 0 0 .59-.23.763.763 0 0 0 .245-.555V7.07a.763.763 0 0 0-.244-.555.862.862 0 0 0-.59-.23Zm0-6.286H.835a.862.862 0 0 0-.59.23A.763.763 0 0 0 0 .786v1.571c0 .209.088.408.245.556a.86.86 0 0 0 .59.23H22.54a.862.862 0 0 0 .59-.23.763.763 0 0 0 .245-.556V.786a.763.763 0 0 0-.244-.556.862.862 0 0 0-.59-.23Z" fill="#311F6D"/></svg>
